static/images/medellin-tribal-vector.svg

<svg xmlns="http://www.w3.org/2000/svg" width="583" height="668" fill="none" viewBox="0 0 583 668"><g opacity=".7"><path fill="#FCDCD9" d="M174.532 128.992H141.208V531.773H174.532V128.992Z" opacity=".6"/><path fill="#FCDCD9" d="M226.58 128.992H193.256V531.773H226.58V128.992Z" opacity=".6"/><path fill="#FCDCD9" d="M280.188 128.992H246.864V531.773H280.188V128.992Z" opacity=".6"/><path fill="#FCDCD9" d="M332.681 128.992H299.357V531.773H332.681V128.992Z" opacity=".6"/><path fill="#FCDCD9" d="M388.184 128.992H354.86V531.773H388.184V128.992Z" opacity=".6"/><path fill="#FCDCD9" d="M442.237 128.992H408.914V531.773H442.237V128.992Z" opacity=".6"/><path fill="#FCDCD9" d="M0 132.443V155.37H123.265V132.443H0Z" opacity=".6"/><path fill="#FCDCD9" d="M0 187.868V210.795H123.265V187.868H0Z" opacity=".6"/><path fill="#FCDCD9" d="M0 160.378V183.305H123.265V160.378H0Z" opacity=".6"/><path fill="#FCDCD9" d="M459.735 132.443V155.37H583V132.443H459.735Z" opacity=".6"/><path fill="#FCDCD9" d="M459.735 187.868V210.795H583V187.868H459.735Z" opacity=".6"/><path fill="#FCDCD9" d="M459.735 160.378V183.305H583V160.378H459.735Z" opacity=".6"/><path fill="#FCDCD9" d="M0 457.984V480.911H123.265V457.984H0Z" opacity=".6"/><path fill="#FCDCD9" d="M0 513.298V536.225H123.265V513.298H0Z" opacity=".6"/><path fill="#FCDCD9" d="M0 485.919V508.846H123.265V485.919H0Z" opacity=".6"/><path fill="#FCDCD9" d="M459.735 457.984V480.911H583V457.984H459.735Z" opacity=".6"/><path fill="#FCDCD9" d="M459.735 513.298V536.225H583V513.298H459.735Z" opacity=".6"/><path fill="#FCDCD9" d="M459.735 485.919V508.846H583V485.919H459.735Z" opacity=".6"/><g opacity=".6"><path fill="#FCDCD9" d="M120.813 334.334C120.813 395.992 48.0354 407.344 1.1145 407.344V261.324C48.1468 261.324 120.813 276.015 120.813 334.334Z" opacity=".6"/><path fill="#FCDCD9" d="M140.54 403.671V267.111C128.837 253.755 113.011 242.403 93.3959 233.5C62.0782 219.254 27.3055 213.466 0.11145 211.352V239.287C30.9834 241.958 59.7377 248.747 81.805 258.875C118.695 275.681 137.419 301.056 137.419 334.334C137.419 370.06 119.253 395.324 81.9165 411.685C65.8675 418.696 39.4536 426.821 0.11145 429.715V457.539C29.4231 455.535 63.5271 450.082 93.173 437.172C112.9 428.49 128.726 417.25 140.54 403.671Z" opacity=".6"/></g><g opacity=".6"><path fill="#FCDCD9" d="M580.882 261.324V407.233C533.962 407.233 461.184 395.881 461.184 334.223C461.184 276.015 533.85 261.324 580.882 261.324Z" opacity=".6"/><path fill="#FCDCD9" d="M441.457 403.671V267.111C453.16 253.755 468.986 242.403 488.601 233.5C519.919 219.254 554.691 213.466 581.885 211.352V239.287C551.014 241.958 522.259 248.747 500.192 258.875C463.302 275.681 444.578 301.056 444.578 334.334C444.578 370.06 462.744 395.324 500.081 411.685C516.129 418.696 542.543 426.821 581.885 429.715V457.539C552.574 455.535 518.47 450.082 488.824 437.172C469.097 428.49 453.16 417.25 441.457 403.671Z" opacity=".6"/></g><g opacity=".6"><path fill="#FCDCD9" d="M118.361 119.755L143.995 99.2762L37.1132 6.34387H1.1145V20.3672L118.361 119.755Z" opacity=".6"/><path fill="#FCDCD9" d="M186.123 65.1083L118.472 6.34387H66.982L160.378 85.5868L186.123 65.1083Z" opacity=".6"/><path fill="#FCDCD9" d="M230.369 31.2742L201.726 6.34387H151.239L204.735 51.6414L230.369 31.2742Z" opacity=".6"/></g><path fill="#FCDCD9" d="M30.0918 107.29C39.0078 107.29 46.2521 100.389 46.2521 91.9307C46.2521 83.4722 39.0078 76.6831 30.0918 76.6831C21.1757 76.6831 13.9314 83.5835 13.9314 92.042C13.9314 100.5 21.1757 107.29 30.0918 107.29Z" opacity=".6"/><path fill="#FCDCD9" d="M549.899 107.29C558.815 107.29 566.059 100.389 566.059 91.9307C566.059 83.4721 558.815 76.5718 549.899 76.5718C540.983 76.5718 533.739 83.4721 533.739 91.9307C533.739 100.389 540.983 107.29 549.899 107.29Z" opacity=".6"/><path fill="#FCDCD9" d="M295.234 27.7128L379.491 96.7164H205.293L295.234 27.7128ZM296.237 0L140.094 119.977H442.683L296.237 0Z" opacity=".6"/><path fill="#FCDCD9" d="M336.693 84.0286H245.972L292.893 48.08L336.693 84.0286Z" opacity=".6"/><g opacity=".6"><path fill="#FCDCD9" d="M460.961 548.245L435.327 568.724L542.209 661.767H578.096V647.633L460.961 548.245Z" opacity=".6"/><path fill="#FCDCD9" d="M393.199 602.892L460.738 661.767H512.229L418.833 582.524L393.199 602.892Z" opacity=".6"/><path fill="#FCDCD9" d="M348.842 636.837L377.484 661.767H428.083L374.587 616.359L348.842 636.837Z" opacity=".6"/></g><g opacity=".6"><path fill="#FCDCD9" d="M118.361 548.245L143.995 568.724L37.1132 661.767H1.1145V647.633L118.361 548.245Z" opacity=".6"/><path fill="#FCDCD9" d="M186.123 602.892L118.472 661.767H66.982L160.378 582.524L186.123 602.892Z" opacity=".6"/><path fill="#FCDCD9" d="M230.369 636.837L201.726 661.767H151.239L204.735 616.359L230.369 636.837Z" opacity=".6"/></g><path fill="#FCDCD9" d="M549.23 560.71C540.314 560.71 533.07 567.611 533.07 576.069C533.07 584.528 540.314 591.428 549.23 591.428C558.146 591.428 565.391 584.528 565.391 576.069C565.391 567.499 558.146 560.71 549.23 560.71Z" opacity=".6"/><path fill="#FCDCD9" d="M29.3116 560.71C20.3955 560.71 13.1512 567.611 13.1512 576.069C13.1512 584.528 20.3955 591.428 29.3116 591.428C38.2277 591.428 45.472 584.528 45.472 576.069C45.472 567.499 38.2277 560.71 29.3116 560.71Z" opacity=".6"/><path fill="#FCDCD9" d="M284.089 640.287L199.832 571.283H374.029L284.089 640.287ZM283.085 668L439.228 548.023H136.527L283.085 668Z" opacity=".6"/><path fill="#FCDCD9" d="M242.629 583.971H333.35L286.429 619.92L242.629 583.971Z" opacity=".6"/><g opacity=".6"><path fill="#FCDCD9" d="M460.961 119.755L435.327 99.2762L542.209 6.34387H578.096V20.3672L460.961 119.755Z" opacity=".6"/><path fill="#FCDCD9" d="M393.199 65.1083L460.738 6.34387H512.229L418.833 85.5868L393.199 65.1083Z" opacity=".6"/><path fill="#FCDCD9" d="M348.842 31.2742L377.484 6.34387H428.083L374.587 51.6414L348.842 31.2742Z" opacity=".6"/></g></g></svg>

<svg xmlns="http://www.w3.org/2000/svg" fill="none" viewBox="0 0 583 668"><g opacity=".7" fill="#FCDCD9"><path d="M174.532 128.992h-33.324v402.781h33.324V128.992zm52.048 0h-33.324v402.781h33.324V128.992zm53.608 0h-33.324v402.781h33.324V128.992zm52.493 0h-33.324v402.781h33.324V128.992zm55.503 0H354.86v402.781h33.324V128.992zm54.053 0h-33.323v402.781h33.323V128.992zM0 132.443v22.927h123.265v-22.927H0zm0 55.425v22.927h123.265v-22.927H0zm0-27.49v22.927h123.265v-22.927H0zm459.735-27.935v22.927H583v-22.927H459.735zm0 55.425v22.927H583v-22.927H459.735zm0-27.49v22.927H583v-22.927H459.735zM0 457.984v22.927h123.265v-22.927H0zm0 55.314v22.927h123.265v-22.927H0zm0-27.379v22.927h123.265v-22.927H0zm459.735-27.935v22.927H583v-22.927H459.735zm0 55.314v22.927H583v-22.927H459.735zm0-27.379v22.927H583v-22.927H459.735z" opacity=".6"/><g opacity=".6"><path d="M120.813 334.334c0 61.658-72.778 73.01-119.698 73.01v-146.02c47.032 0 119.698 14.691 119.698 73.01z" opacity=".6"/><path d="M140.54 403.671v-136.56c-11.703-13.356-27.529-24.708-47.144-33.611-31.318-14.246-66.09-20.034-93.285-22.148v27.935c30.872 2.671 59.627 9.46 81.694 19.588 36.89 16.806 55.614 42.181 55.614 75.459 0 35.726-18.166 60.99-55.503 77.351-16.048 7.011-42.462 15.136-81.805 18.03v27.824c29.312-2.004 63.416-7.457 93.062-20.367 19.727-8.682 35.553-19.922 47.367-33.501z" opacity=".6"/></g><g opacity=".6"><path d="M580.882 261.324v145.909c-46.92 0-119.698-11.352-119.698-73.01 0-58.208 72.666-72.899 119.698-72.899z" opacity=".6"/><path d="M441.457 403.671v-136.56c11.703-13.356 27.529-24.708 47.144-33.611 31.318-14.246 66.09-20.034 93.284-22.148v27.935c-30.871 2.671-59.626 9.46-81.693 19.588-36.89 16.806-55.614 42.181-55.614 75.459 0 35.726 18.166 60.99 55.503 77.351 16.048 7.011 42.462 15.136 81.804 18.03v27.824c-29.311-2.004-63.415-7.457-93.061-20.367-19.727-8.682-35.664-19.922-47.367-33.501z" opacity=".6"/></g><path d="m118.361 119.755 25.634-20.479L37.113 6.344H1.115v14.023l117.246 99.388zm67.762-54.647L118.472 6.344h-51.49l93.396 79.243 25.745-20.479zm44.246-33.834-28.643-24.93h-50.487l53.496 45.297 25.634-20.367zM30.092 107.29c8.916 0 16.16-6.901 16.16-15.36 0-8.458-7.244-15.247-16.16-15.247s-16.16 6.9-16.16 15.359c0 8.458 7.244 15.248 16.16 15.248zm519.807 0c8.916 0 16.16-6.901 16.16-15.36 0-8.458-7.244-15.358-16.16-15.358s-16.16 6.9-16.16 15.359c0 8.458 7.244 15.359 16.16 15.359zM295.234 27.713l84.257 69.003H205.293l89.941-69.003zM296.237 0 140.094 119.977h302.589L296.237 0z" opacity=".6"/><path d="M336.693 84.029h-90.721l46.921-35.949 43.8 35.949zm124.268 464.216-25.634 20.479 106.882 93.043h35.887v-14.134l-117.135-99.388zm-67.762 54.647 67.539 58.875h51.491l-93.396-79.243-25.634 20.368zm-44.357 33.945 28.642 24.93h50.599l-53.496-45.408-25.745 20.478zm-230.481-88.592 25.634 20.479-106.882 93.043H1.115v-14.134l117.246-99.388zm67.762 54.647-67.651 58.875h-51.49l93.396-79.243 25.745 20.368zm44.246 33.945-28.643 24.93h-50.487l53.496-45.408 25.634 20.478zM549.23 560.71c-8.916 0-16.16 6.901-16.16 15.359 0 8.459 7.244 15.359 16.16 15.359s16.161-6.9 16.161-15.359c0-8.57-7.245-15.359-16.161-15.359zm-519.918 0c-8.917 0-16.16 6.901-16.16 15.359 0 8.459 7.243 15.359 16.16 15.359 8.916 0 16.16-6.9 16.16-15.359 0-8.57-7.244-15.359-16.16-15.359zm254.777 79.577-84.257-69.004h174.197l-89.94 69.004zM283.085 668l156.143-119.977H136.527L283.085 668z" opacity=".6"/><path d="M242.629 583.971h90.721l-46.921 35.949-43.8-35.949zm218.332-464.216-25.634-20.479L542.209 6.344h35.887v14.023l-117.135 99.388zm-67.762-54.647 67.539-58.764h51.491l-93.396 79.243-25.634-20.479zm-44.357-33.834 28.642-24.93h50.599L374.587 51.64l-25.745-20.367z" opacity=".6"/></g></svg>
